X:1
T:Domine Deus noster
T:Giovanni Rovetta
T:Source : Motetti concertati---Venetia---A.Vincenti---1639. Editor : André Vierendeels (16/07/15).
T:Notes : Original clefs : C3, C4 F4 Editorial accidentals above the staff Figures in BC are notated in originl print
T:Domine Deus noster
C:Giovanni Rovetta
%%score [ 1 2 ] 3
L:1/8
Q:1/4=120
M:4/4
K:F
V:1 treble nm="Alto" snm="A"
V:2 treble-8 nm="Tenor" snm="T"
V:3 bass nm="BC" snm="BC"
V:1
 z8 | z8 | z8 | z8 | z8 | z8 | z8 | z8 | z8 | z8 | z8 | z8 | z8 | z8 | z2 G2 z GDE | %15
w: ||||||||||||||Tu fe- ci- sti|
 F2 F2 z2 F/E/F/C/ | D2 D2 z2 B,C | D2 DE F>F F2 | GA BA G4 | F4 z2 F2 | z FCD _E2 E2 | %21
w: coe- lum et _ _ _|ter- ram et quid-|quid coe- li am- bi- tu|con- * ti- * ne-|tur, tu|fe- ci- sti coe- lum|
 z2 _E/D/E/C/ D2 D2 | z2 G,A, B,2 B,C | D>D D2 EF G2 | G6 ^F2 | G8 | z2 G4 F/E/F/G/ | _E3 D D4 | %28
w: et _ _ _ ter- ram|et quid- quid coe- li|am- bi- tu con- * ti-|ne- *|tur,|et nunc _ _ _|Do- mi- ne,|
 z8 | z4 z2 G2- | G2 F/E/F/G/ E3 D | D2 B,B, _E2 E2 | z2 DD G3 A | ^F2 GG G2 F2 | G4 z4 | z8 | z8 | %37
w: |et|_ nunc _ _ _ Do- mi-|ne mi- se- re- re,|mi- se- re- re|po- pu- lo tu- *|o,|||
 z8 | z2 DE FF ^FF/G/ | G2 G2 z2 DE | F2 F2 CCCD | _E2 D/E/F C2 C>D | D4 z4 | z2 DE FF FF/G/ | %44
w: |mi- se- re- re po- pu- lo|tu- o, qui- a|vo- lunt i- ni- mi- ci|no- stri _ _ per- de- te|nos,|mi- se- re- re po- pu- lo|
 G2 G2 z2 FG | AA E/E/E/F/ G2 G2 | z2 G4 G>^F | G8 | z2 GD F3 _E | D2 CB, C2 C2 | z CDE F2 F2 | %51
w: tu- o qui- a|vo- lunt i- ni- mi- ci no- stri,|per- de- te|nos,|ne de- spi- ci-|at par- tem me- am|qua re- de- mi- sti|
 z2 GG G2 GA | A2 E2 z EEF | G3 F E4 | D8 | z8 | z2 DD DD_EF | GG z F _E<D D>C | D4 z4 | z8 | z8 | %61
w: et pro- pi- ti- us|es- to, he- re- di-|ta- ti tu-|ae,||et con- ver- te- lu- ctum|no- strum in gau- * di- *|um,|||
 z4 z2 B,B, | _E2 CC FGFE | DD z D GAGF | EFGG G2 ^F2 | G4 z4 | z8 | z8 | z8 | z8 | z8 | %71
w: ut vi-|ven- tes lau- de- mus no- men|tu- um, lau- de- mus no- men|tu- um in ae- ter- *|num,||||||
 z2 ^FF FF F>G | G2 G2 z2 G2 | GF F_E/D/ E3 E | D4 z4 | z2 DD G2 EE | ABAG F2 F2 | z2 GF E4 | %78
w: et con- ver- te luc- tum|no- strum in|gau- * * * * * di-|um,|ut vi- ven- tes lau-|de- mus no- men tu- um|in ae- ter-|
 D4 z4 | z2 EE A2 A2 | z2 ^F2 GAGF |"^#" EFGG G2 ^F2 | G4 z2 GG | GFF_E E2 ED | F_EED D4 | C4 z4 | %86
w: num,|ut vi- ven- tes|lau- de- mus no- men|tu- um in ae- ter- *|num, in ae-|ter- num, in ae- ter- num lau-|de- mus no- men tu-|um|
 z2 G4 F2 | _E4- E DDC |"^b" D8 |] %89
w: in ae-|ter- * * * *|num.|
V:2
 z2 d3 d A2 | B2 B2 z2 BB | c4- cd/_e/ d>c | d8 | z2 d2 ABcd | BG B4 B>A | c>c c2 z2 cd | %7
w: mi- ne De-|us, De- us no-|ster * * * * *|in|di- ti- o- ne tu-|a cun- cta sunt po-|si- ta et non est|
 B3 B B2 B>A | A>A A2 GFEE | E4 D4 | z2 AA d3 d | c2 cd _e3 d | c2 B/A/c/B/ A3 G | G8 | z8 | z8 | %16
w: qui pos- sit re- si-|ste- re vo- lun- ta- ti tu-|ae, si|de- cre- ve- tis,-|si de- cre- ve- tis|sal- va- * * * te nos,|et|||
 z8 | z8 | z8 | z8 | z8 | z8 | z8 | z8 | z8 | z8 | z2 d4 A/G/A/B/ | G3 F F4 | z2 FF B2 B2 | %29
w: ||||||||||nunc Do- _ _ _|mi- ne, mi-|se- re- re, mi-|
 z2 AA d3 e | ^c2 dd d2 c2 | d4 z4 | z4 z2 c2- | c2 B/A/B/c/ A3 G | G2 GA =BB BB/c/ | c2 c2 z2 cc | %36
w: se- re- re po-|pu- lo tu- o, *|et|nunc|_ Do- _ _ _ mi- ne|mi- se- re- re po- pu- lo tu-|o, qui- a vo-|
 d2 d2 dddA | B2 B2 c2 c>d | B4 z4 | z8 | z8 | z8 | z2 FG AA AA/B/ | B2 B2 z2 cd | %44
w: lunt i- ni- mi- ci no-|stri per- de- te nos,|mi-||||se- re- re po- pu- lo tu-|o qui- a vo-|
 _ee B/B/B/c/ ddAB | cc G/G/G/A/ B2 A2 | A6 G>A | G8 | z8 | z8 | z8 | z8 | z8 | z8 | z2 AA AA=Bc | %55
w: lunt i- ni- mi- ci no- stri, qui- a vo-|lunt i- ni- mi- ci no- stri per-|de- te nos,|et|||||||con- ver- te lu- ctum no-|
 dd z d _e<d d>c | d4 z4 | z8 | z2 FF B2 GG | cdcB AA z A | d_edc Bcde | c4 B4 | z8 | z8 | z8 | %65
w: strum in gau- di- * * um,|ut||vi- ven- tes lau- de-|mus no- men tu- um, lau- de-|mus no- men tu- um in ae- ter-|num, ne||||
 z2 dG B3 A | A2 G>F F2 F2 | z FGA B2 B2 | z2 BB B2 Bc | d2 A2 z ABc | d2 d2 d3 ^c | d4 z4 | %72
w: de- spi- ci- as|par- tem tu- am quam|re- de- mi- sti et|pro- pi- ti- us es-|to he- re- di- ta-|ti tu- ae, *|et|
 z2 dd ddd_e | _e2 e2 z2 c2 | dc cB/A/ B3 A | A4 z2 GG | c2 AA d_edc | BABG A4 | D4 z2 AA | %79
w: con- ver- te luc- tum no-|strum in gau-|di- * * * * * um,|ut vi- ven-|tes lau- de- mus no- men tu-|um in ae- ter- num,|ut- vi- ven-|
 d2 GG cdcB | AA z A BcBA | GABc A4 | G4 z4 | z4 z2 GG | A=Bcc c2 BB | cd_ef d4 | c2 _e2 d4 | %87
w: tes lau- de- mus no- men tu-|um la- de- mus no- men tu-|um in ae- ter- num,|in|ae- ter-|num, in ae- ter- num lau- de-|mus * ae- ter- num,|in ae- ter-|
 c4- cB B>A | =B8 |] %89
w: num. * * * *||
V:3
 G,4 ^F,4 | G,8 |"^6" _E,8 |"^-natural" D,6 E,2 | ^F,8 |"^5      6" G,8 | F,4 F,,4 | G,,8 | %8
"^6" D,2 F,,2 G,,4 | A,,4 D,4- |"^-natural" D,4 B,,4 |"^b" F,4 C,3 D, | _E,2 C,2 D,4 | G,,8 | G,8 | %15
"^6" D,4 A,,4 | B,,8- |"^6" B,,4 A,,4 | B,,4 C,4 |"^b" F,,8 | F,,4 C,4- |"^b" C,4 G,,4 | %22
"^b" G,4 E,2 D,2 |"^#" B,,2 C,2 _E,4 | D,8 | G,,8 | G,4 D,4 | _E,4 B,,4 | z2 B,,4 G,,2 | %29
 D,3 C, B,,2 G,,2 | A,,8 | D,2 G,2 _E,2 C,2 | G,3 F, _E,2 C,2 | D,8 |"^-natural" G,,4 G,4 | %35
"^6" E,8 | ^F,8 |"^6" G,2 D,2 _E,2 F,2 | B,,4 A,,4 | G,,4 G,4 | D,3 E, F,4 | C,2 D,2 _E,2 F,2 | %42
 B,,4 A,,4 | G,,2 G,2 F,4 | _E,4 D,4 |"^b" C,4 B,,3 C, | D,8 | G,,8 |"^6" G,4 A,4 | B,2 B,,2 F,4- | %50
 F,2 E,2 D,4- | D,2 C,2 B,,4 |"^#" A,,8 | B,,2 G,,2 A,,4 |"^#" D,6 C,2 | =B,,4 C,4 | %56
"^b" G,,2 G,4 F,2 |"^7    6" _E,2 D,2 C,4 | B,,6 _E,2 | C,4 F,4 |"^-natural" D,4 G,2 D,2 | %61
"^-natural" _E,2 F,2 B,,2 E,2 |"^-natural" C,2 F,2 D,4 | G,3 F, _E,3 D, | C,4 D,4 | G,,8 | %66
 D,2 _E,2 B,,4- | B,,2 A,,2 G,,4 | G,6 _E,2 | D,6 C,2 | B,,2 G,,2 A,,4 |"^#" D,8 | =B,,8 | %73
"^b" C,8 | G,,8 |"^-natural" D,4 =B,,2 C,2 |"^-natural" A,,2 A,2 D3 C | B,2 G,2 A,4 | %78
"^#""^#" D,4 z2 D,2 |"^-natural" =B,,2 C,2 A,,4 |"^#" D,4 B,,4 |"^6" C,2 G,,2 D,4 | %82
"^-natural" G,,6 A,,2 | =B,,4 C,4 |"^-natural" F,,4 G,,4 |"^b""^-natural" C,2 F,,2 G,,4 | %86
"^6" C,4 =B,,4 |"^b" C,8 |"^#" G,,8 |] %89

